X: 168
T: the Lincolnshire Lads
B: 204 Favourite Country Dances
N: Published by Straight & Skillern, London ca.1775
F: http://imslp.org/wiki/204_Favourite_Country_Dances_(Various) p.84 #168
Z: 2014 John Chambers <jc:trillian.mit.edu>
M: 2/4
L: 1/8
K: A
% - - - - - - - - - - - - - - - - - - - - - - - - -
A2Ac | B2Bd | cedc | dBAG |\
A2Ac | B2Bd | cedc | c2B2 :|
|:\
e2ef | ecBA | fefg | a2gf |\
e2ef | edca | ecdB | A4 :|
% - - - - - - - - - - - - - - - - - - - - - - - - -
%%begintext align
%% 1st Cu. foot it and cast off two Cu. .| the
%% same up again .|. lead down two Cu. and
%% cast up one .|| foot it & hands 6 round .||.
%%endtext

%%sep 1 1 500
%%sep 1 1 500
